svg/u1f6f3.svg

<svg viewBox="0 0 128 128" xmlns="http://www.w3.org/2000/svg" xmlns:xlink="http://www.w3.org/1999/xlink">
  <linearGradient id="d" gradientUnits="userSpaceOnUse" x1="64" x2="64" y1="83.5" y2="125.65">
    <stop offset="0" stop-color="#29B6F6"/>
    <stop offset=".9826" stop-color="#0288D1"/>
  </linearGradient>
  <rect fill="url(#d)" height="44" width="120" x="4" y="80"/>
  <g opacity=".2">
    <path d="m121 83v38h-114v-38h114m3-3h-120v44h120v-44z" fill="#424242"/>
  </g>
  <path d="m66.96 28h-19.56c-2.76 0-5.68 6.52-5.68 6.52h30.35c0.01 0-2.24-6.52-5.11-6.52z" fill="#757575"/>
  <path d="m103.08 28c-3.73 0-7.13 1.92-8.8 4.96l-0.86 1.56h19.37l-1.05-1.79c-1.71-2.91-5.04-4.73-8.66-4.73z" fill="#757575"/>
  <g opacity=".2">
    <path d="m66.95 30c0.44 0.07 1.28 1.09 2.06 2.52h-23.92c0.9-1.39 1.82-2.44 2.31-2.52h19.55m0.01-2h-19.56c-2.76 0-5.68 6.52-5.68 6.52h30.35c0.01 0-2.24-6.52-5.11-6.52z" fill="#424242"/>
  </g>
  <g opacity=".2">
    <path d="m103.08 30c2.37 0 4.56 0.94 6.03 2.52h-12.06c1.47-1.56 3.69-2.52 6.03-2.52m0-2c-3.73 0-7.13 1.92-8.8 4.96l-0.86 1.56h19.37l-1.05-1.79c-1.71-2.91-5.04-4.73-8.66-4.73z" fill="#424242"/>
  </g>
  <linearGradient id="c" gradientUnits="userSpaceOnUse" x1="63.987" x2="63.987" y1="46" y2="88.672">
    <stop offset="0" stop-color="#F5F5F5"/>
    <stop offset="1" stop-color="#E0E0E0"/>
  </linearGradient>
  <path d="m117.1 33h-81.01c-0.96 0-1.86 0.47-2.41 1.25l-1.32 1.88c-0.37 0.53 0.01 1.27 0.66 1.26l1.76-0.02c0.52-0.01 0.82 0.58 0.52 1l-15.3 21.69h-16c-0.06 0 0 1.91 0 1.91 0 1.97 0.67 3.87 1.9 5.41l11.64 14.5c1.62 2.02 2.46 3.66 2.41 6.25l104.05-0.09v-28.26l-5.16-21.68c0.85 0 1.44-0.86 1.13-1.65l-0.32-0.82c-0.56-1.58-0.88-2.63-2.55-2.63z" fill="url(#c)"/>
  <defs>
    <path id="b" d="M34.57,39.41L20,60.06H4v1.95c0,1.94,0.66,3.83,1.88,5.34l11.67,14.53c1.62,2.02,2.46,3.66,2.41,6.25l0,0 L124,88.04V74.21L95.08,61.07L112,60.99l-0.38-21.11L34.57,39.41z"/>
  </defs>
  <clipPath id="a">
    <use xlink:href="#b"/>
  </clipPath>
  <rect clip-path="url(#a)" fill="#01579B" height="13.17" width="122" x="4" y="75.83"/>
  <rect clip-path="url(#a)" fill="#4FC3F7" height="6" width="79.33" x="28.75" y="40"/>
  <rect clip-path="url(#a)" fill="#4FC3F7" height="8" width="86.87" x="21.01" y="50.41"/>
  <g clip-path="url(#a)" opacity=".2">
    <path d="m106.08 42v2h-75.33v-2h75.33m2-2h-79.33v6h79.33v-6z" fill="#424242"/>
  </g>
  <g clip-path="url(#a)" opacity=".2">
    <path d="m105.87 52.41v4h-82.86v-4h82.86m2-2h-86.86v8h86.87v-8h-0.01z" fill="#424242"/>
  </g>
  <g opacity=".2">
    <path d="m117.1 35c0.07 0 0.12 0 0.15 0.01 0.13 0.21 0.32 0.74 0.46 1.13l0.06 0.16c0.01 0.02 0.01 0.04 0.02 0.06l0.01 0.03c-0.2 0.12-0.38 0.28-0.53 0.47-0.38 0.48-0.52 1.11-0.38 1.7l5.1 21.46v26.03l-100.17 0.08c-0.35-2.16-1.35-3.81-2.71-5.5l-11.65-14.51c-0.92-1.15-1.44-2.59-1.46-4.06h14c0.65 0 1.26-0.32 1.63-0.85l15.3-21.69c0.57-0.81 0.64-1.85 0.19-2.73-0.37-0.72-1.04-1.21-1.82-1.37l0.02-0.02c0.18-0.25 0.46-0.4 0.77-0.4h81.01m0-2h-81.01c-0.96 0-1.86 0.47-2.41 1.25l-1.32 1.88c-0.37 0.53 0.01 1.26 0.65 1.26h0.01l1.76-0.02h0.01c0.51 0 0.81 0.58 0.52 1l-15.31 21.69h-16c-0.06 0 0 1.91 0 1.91 0 1.97 0.67 3.87 1.9 5.41l11.64 14.5c1.62 2.02 2.46 3.66 2.41 6.25l104.05-0.09v-28.26l-5.16-21.68c0.85 0 1.44-0.86 1.13-1.65l-0.32-0.82c-0.56-1.58-0.88-2.63-2.55-2.63z" fill="#424242"/>
  </g>
  <circle cx="26.71" cy="68.43" fill="#FF9800" r="4"/>
  <circle cx="48.23" cy="68.43" fill="#FF9800" r="4"/>
  <circle cx="69.75" cy="68.43" fill="#FF9800" r="4"/>
  <circle cx="91.27" cy="68.43" fill="#FF9800" r="4"/>
  <circle cx="112.79" cy="68.43" fill="#FF9800" r="4"/>
  <g opacity=".2">
    <path d="m26.71 66.43c1.1 0 2 0.9 2 2s-0.9 2-2 2-2-0.9-2-2 0.89-2 2-2m0-2c-2.21 0-4 1.79-4 4s1.79 4 4 4 4-1.79 4-4-1.79-4-4-4z" fill="#424242"/>
  </g>
  <g opacity=".2">
    <path d="m48.23 66.43c1.1 0 2 0.9 2 2s-0.9 2-2 2-2-0.9-2-2 0.9-2 2-2m0-2c-2.21 0-4 1.79-4 4s1.79 4 4 4 4-1.79 4-4-1.79-4-4-4z" fill="#424242"/>
  </g>
  <g opacity=".2">
    <path d="m69.75 66.43c1.1 0 2 0.9 2 2s-0.9 2-2 2-2-0.9-2-2 0.9-2 2-2m0-2c-2.21 0-4 1.79-4 4s1.79 4 4 4 4-1.79 4-4-1.79-4-4-4z" fill="#424242"/>
  </g>
  <g opacity=".2">
    <path d="m91.27 66.43c1.1 0 2 0.9 2 2s-0.9 2-2 2-2-0.9-2-2 0.9-2 2-2m0-2c-2.21 0-4 1.79-4 4s1.79 4 4 4 4-1.79 4-4-1.79-4-4-4z" fill="#424242"/>
  </g>
  <g opacity=".2">
    <path d="m112.79 66.43c1.1 0 2 0.9 2 2s-0.9 2-2 2-2-0.9-2-2 0.9-2 2-2m0-2c-2.21 0-4 1.79-4 4s1.79 4 4 4 4-1.79 4-4-1.79-4-4-4z" fill="#424242"/>
  </g>
</svg>

<svg style="enable-background:new 0 0 128 128;" viewBox="0 0 128 128" xmlns="http://www.w3.org/2000/svg" xmlns:xlink="http://www.w3.org/1999/xlink">
  <linearGradient id="SVGID_1_" gradientTransform="matrix(1 0 0 1 0 -713.8898)" gradientUnits="userSpaceOnUse" x1="64" x2="64" y1="797.3898" y2="839.5398">
    <stop offset="0" style="stop-color:#29B6F6"/>
    <stop offset="0.9826" style="stop-color:#0288D1"/>
  </linearGradient>
  <rect height="44" style="fill:url(#SVGID_1_);" width="120" x="4" y="80"/>
  <g style="opacity:0.2;">
    <path d="M121,83v38H7V83H121 M124,80H4v44h120V80z" style="fill:#424242;"/>
  </g>
  <rect height="0.7" style="fill:#F2F2F2;" width="0" x="-399" y="-202.7"/>
  <path d="M-107.5-112.2" style="fill:none;stroke:#FF0000;stroke-width:0.25;stroke-miterlimit:10;"/>
  <path d="M-103.5-112.2" style="fill:none;stroke:#FF0000;stroke-width:0.25;stroke-miterlimit:10;"/>
  <path d="M6-100.2" style="fill:none;stroke:#FF0000;stroke-width:0.25;stroke-miterlimit:10;"/>
  <path d="M14.6-122" style="fill:none;stroke:#ED1E79;stroke-width:0.25;stroke-miterlimit:10;"/>
  <path d="M67,28H47.4c-2.8,0-5.7,6.5-5.7,6.5H72C72.1,34.5,69.8,28,67,28z" style="fill:#757575;"/>
  <path d="M103.1,28c-3.7,0-7.1,1.9-8.8,5l-0.9,1.6h19.4l-1.1-1.8C110,29.8,106.7,28,103.1,28z" style="fill:#757575;"/>
  <g style="opacity:0.2;">
    <path d="M66.9,30c0.4,0.1,1.3,1.1,2.1,2.5H45.1c0.9-1.4,1.8-2.4,2.3-2.5H66.9 M67,28H47.4 c-2.8,0-5.7,6.5-5.7,6.5H72C72.1,34.5,69.8,28,67,28z" style="fill:#424242;"/>
  </g>
  <g style="opacity:0.2;">
    <path d="M103.1,30c2.4,0,4.6,0.9,6,2.5h-12C98.5,31,100.7,30,103.1,30 M103.1,28c-3.7,0-7.1,1.9-8.8,5 l-0.9,1.6h19.4l-1.1-1.8C110,29.8,106.7,28,103.1,28z" style="fill:#424242;"/>
  </g>
  <linearGradient id="SVGID_2_" gradientTransform="matrix(1 0 0 1 0 -713.8898)" gradientUnits="userSpaceOnUse" x1="63.9778" x2="63.9778" y1="759.8898" y2="802.5618">
    <stop offset="0" style="stop-color:#F5F5F5"/>
    <stop offset="1" style="stop-color:#E0E0E0"/>
  </linearGradient>
  <path d="M117.1,33h-81c-1,0-1.9,0.5-2.4,1.2l-1.3,1.9c-0.4,0.5,0,1.3,0.7,1.3h1.8c0.5,0,0.8,0.6,0.5,1 L20,60.1H4c-0.1,0,0,1.9,0,1.9c0,2,0.7,3.9,1.9,5.4l11.6,14.5c1.6,2,2.5,3.7,2.4,6.2L124,88V59.8l-5.2-21.7c0.8,0,1.4-0.9,1.1-1.7 l-0.3-0.8C119.1,34,118.8,33,117.1,33z" style="fill:url(#SVGID_2_);"/>
  <g>
    <defs>
      <path id="SVGID_3_" d="M34.6,39.4L20,60.1H4v2c0,1.9,0.7,3.8,1.9,5.3l11.7,14.5c1.6,2,2.5,3.7,2.4,6.2l0,0L124,88V74.2L95.1,61.1 L112,61l-0.4-21.1L34.6,39.4z"/>
    </defs>
    <clipPath id="SVGID_4_">
      <use style="overflow:visible;" xlink:href="#SVGID_3_"/>
    </clipPath>
    <rect height="13.2" style="clip-path:url(#SVGID_4_);fill:#01579B;" width="122" x="4" y="75.8"/>
  </g>
  <g>
    <defs>
      <path id="SVGID_5_" d="M34.6,39.4L20,60.1H4v2c0,1.9,0.7,3.8,1.9,5.3l11.7,14.5c1.6,2,2.5,3.7,2.4,6.2l0,0L124,88V74.2L95.1,61.1 L112,61l-0.4-21.1L34.6,39.4z"/>
    </defs>
    <clipPath id="SVGID_6_">
      <use style="overflow:visible;" xlink:href="#SVGID_5_"/>
    </clipPath>
    <rect height="6" style="clip-path:url(#SVGID_6_);fill:#4FC3F7;" width="79.3" x="28.8" y="40"/>
  </g>
  <g>
    <defs>
      <path id="SVGID_7_" d="M34.6,39.4L20,60.1H4v2c0,1.9,0.7,3.8,1.9,5.3l11.7,14.5c1.6,2,2.5,3.7,2.4,6.2l0,0L124,88V74.2L95.1,61.1 L112,61l-0.4-21.1L34.6,39.4z"/>
    </defs>
    <clipPath id="SVGID_8_">
      <use style="overflow:visible;" xlink:href="#SVGID_7_"/>
    </clipPath>
    <rect height="8" style="clip-path:url(#SVGID_8_);fill:#4FC3F7;" width="86.9" x="21" y="50.4"/>
  </g>
  <g>
    <defs>
      <path id="SVGID_9_" d="M34.6,39.4L20,60.1H4v2c0,1.9,0.7,3.8,1.9,5.3l11.7,14.5c1.6,2,2.5,3.7,2.4,6.2l0,0L124,88V74.2L95.1,61.1 L112,61l-0.4-21.1L34.6,39.4z"/>
    </defs>
    <clipPath id="SVGID_10_">
      <use style="overflow:visible;" xlink:href="#SVGID_9_"/>
    </clipPath>
    <g style="opacity:0.2;clip-path:url(#SVGID_10_);">
      <path d="M106.1,42v2H30.8v-2H106.1 M108.1,40H28.8v6h79.3C108.1,46,108.1,40,108.1,40z" style="fill:#424242;"/>
    </g>
  </g>
  <g>
    <defs>
      <path id="SVGID_11_" d="M34.6,39.4L20,60.1H4v2c0,1.9,0.7,3.8,1.9,5.3l11.7,14.5c1.6,2,2.5,3.7,2.4,6.2l0,0L124,88V74.2 L95.1,61.1L112,61l-0.4-21.1L34.6,39.4z"/>
    </defs>
    <clipPath id="SVGID_12_">
      <use style="overflow:visible;" xlink:href="#SVGID_11_"/>
    </clipPath>
    <g style="opacity:0.2;clip-path:url(#SVGID_12_);">
      <path d="M105.9,52.4v4H23v-4H105.9 M107.9,50.4H21v8h86.9V50.4L107.9,50.4z" style="fill:#424242;"/>
    </g>
  </g>
  <g style="opacity:0.2;">
    <path d="M36.1,33" style="fill:#424242;"/>
  </g>
  <g style="opacity:0.2;">
    <path d="M117.1,35c0.1,0,0.1,0,0.2,0c0.1,0.2,0.3,0.7,0.5,1.1l0.1,0.2c0,0,0,0,0,0.1l0,0 c-0.2,0.1-0.4,0.3-0.5,0.5c-0.4,0.5-0.5,1.1-0.4,1.7l5,21.4v26L21.8,86.1c-0.4-2.2-1.4-3.8-2.7-5.5L7.5,66.1c-1-1.1-1.5-2.6-1.5-4 h14c0.6,0,1.3-0.3,1.6-0.8l15.3-21.7c0.6-0.8,0.6-1.8,0.2-2.7c-0.4-0.7-1-1.2-1.8-1.4l0,0c0.2-0.2,0.5-0.4,0.8-0.4L117.1,35 M117.1,33h-81c-1,0-1.9,0.5-2.4,1.2l-1.3,1.9c-0.4,0.5,0,1.3,0.7,1.3l0,0h1.8l0,0c0.5,0,0.8,0.6,0.5,1L20,60.1H4 c-0.1,0,0,1.9,0,1.9c0,2,0.7,3.9,1.9,5.4l11.6,14.5c1.6,2,2.5,3.7,2.4,6.2L124,88V59.8l-5.2-21.7c0.8,0,1.4-0.9,1.1-1.7l-0.3-0.8 C119.1,34.1,118.8,33,117.1,33L117.1,33z" style="fill:#424242;"/>
  </g>
  <circle cx="26.7" cy="68.4" r="4" style="fill:#FF9800;"/>
  <circle cx="48.2" cy="68.4" r="4" style="fill:#FF9800;"/>
  <circle cx="69.8" cy="68.4" r="4" style="fill:#FF9800;"/>
  <circle cx="91.3" cy="68.4" r="4" style="fill:#FF9800;"/>
  <circle cx="112.8" cy="68.4" r="4" style="fill:#FF9800;"/>
  <g style="opacity:0.2;">
    <path d="M26.7,66.4c1.1,0,2,0.9,2,2s-0.9,2-2,2s-2-0.9-2-2S25.6,66.4,26.7,66.4 M26.7,64.4c-2.2,0-4,1.8-4,4 s1.8,4,4,4s4-1.8,4-4S28.9,64.4,26.7,64.4z" style="fill:#424242;"/>
  </g>
  <g style="opacity:0.2;">
    <path d="M48.2,66.4c1.1,0,2,0.9,2,2s-0.9,2-2,2s-2-0.9-2-2S47.1,66.4,48.2,66.4 M48.2,64.4c-2.2,0-4,1.8-4,4 s1.8,4,4,4s4-1.8,4-4S50.4,64.4,48.2,64.4z" style="fill:#424242;"/>
  </g>
  <g style="opacity:0.2;">
    <path d="M69.8,66.4c1.1,0,2,0.9,2,2s-0.9,2-2,2s-2-0.9-2-2S68.7,66.4,69.8,66.4 M69.8,64.4c-2.2,0-4,1.8-4,4 s1.8,4,4,4s4-1.8,4-4S72,64.4,69.8,64.4z" style="fill:#424242;"/>
  </g>
  <g style="opacity:0.2;">
    <path d="M91.3,66.4c1.1,0,2,0.9,2,2s-0.9,2-2,2s-2-0.9-2-2S90.2,66.4,91.3,66.4 M91.3,64.4c-2.2,0-4,1.8-4,4 s1.8,4,4,4s4-1.8,4-4S93.5,64.4,91.3,64.4z" style="fill:#424242;"/>
  </g>
  <g style="opacity:0.2;">
    <path d="M112.8,66.4c1.1,0,2,0.9,2,2s-0.9,2-2,2s-2-0.9-2-2S111.7,66.4,112.8,66.4 M112.8,64.4 c-2.2,0-4,1.8-4,4s1.8,4,4,4s4-1.8,4-4S115,64.4,112.8,64.4z" style="fill:#424242;"/>
  </g>
</svg>
